src/assets/images/svg/social/logo-github.svg

<svg width="40" height="40" viewBox="0 0 40 40" fill="none" xmlns="http://www.w3.org/2000/svg">
<path d="M20 2.5C10.3359 2.5 2.5 10.5391 2.5 20.4453C2.5 28.375 7.51562 35.0937 14.4688 37.4687C14.5663 37.4899 14.6658 37.5004 14.7656 37.5C15.4141 37.5 15.6641 37.0234 15.6641 36.6094C15.6641 36.1797 15.6484 35.0547 15.6406 33.5547C15.0618 33.6904 14.4696 33.7611 13.875 33.7656C10.5078 33.7656 9.74219 31.1484 9.74219 31.1484C8.94531 29.0781 7.79688 28.5234 7.79688 28.5234C6.27344 27.4531 7.78906 27.4219 7.90625 27.4219H7.91406C9.67188 27.5781 10.5938 29.2812 10.5938 29.2812C11.4688 30.8125 12.6406 31.2422 13.6875 31.2422C14.3797 31.2283 15.0612 31.0686 15.6875 30.7734C15.8438 29.6172 16.2969 28.8281 16.7969 28.375C12.9141 27.9219 8.82812 26.3828 8.82812 19.5078C8.82812 17.5469 9.50781 15.9453 10.625 14.6953C10.4453 14.2422 9.84375 12.4141 10.7969 9.94531C10.9247 9.91472 11.0561 9.90158 11.1875 9.90625C11.8203 9.90625 13.25 10.1484 15.6094 11.7891C18.4762 10.987 21.5082 10.987 24.375 11.7891C26.7344 10.1484 28.1641 9.90625 28.7969 9.90625C28.9282 9.90158 29.0597 9.91472 29.1875 9.94531C30.1406 12.4141 29.5391 14.2422 29.3594 14.6953C30.4766 15.9531 31.1562 17.5547 31.1562 19.5078C31.1562 26.3984 27.0625 27.9141 23.1641 28.3594C23.7891 28.9141 24.3516 30.0078 24.3516 31.6797C24.3516 34.0781 24.3281 36.0156 24.3281 36.6016C24.3281 37.0234 24.5703 37.5 25.2188 37.5C25.3237 37.5005 25.4284 37.49 25.5312 37.4687C32.4922 35.0937 37.5 28.3672 37.5 20.4453C37.5 10.5391 29.6641 2.5 20 2.5Z" fill="url(#paint0_linear_93_597)"/>
<defs>
<linearGradient id="paint0_linear_93_597" x1="2.5" y1="20" x2="21" y2="20" gradientUnits="userSpaceOnUse">
<stop stop-color="#009DF8"/>
<stop offset="1" stop-color="#708AF4"/>
</linearGradient>
</defs>
</svg>

<svg xmlns="http://www.w3.org/2000/svg" width="40" height="40" fill="none"><path fill="url(#a)" d="M20 2.5c-9.664 0-17.5 8.04-17.5 17.945 0 7.93 5.016 14.649 11.969 17.024.097.02.197.031.297.031.648 0 .898-.477.898-.89 0-.43-.016-1.555-.023-3.055a8 8 0 0 1-1.766.21c-3.367 0-4.133-2.617-4.133-2.617-.797-2.07-1.945-2.625-1.945-2.625-1.524-1.07-.008-1.101.11-1.101h.007c1.758.156 2.68 1.86 2.68 1.86.875 1.53 2.047 1.96 3.094 1.96a4.923 4.923 0 0 0 2-.469c.156-1.156.609-1.945 1.109-2.398-3.883-.453-7.969-1.992-7.969-8.867 0-1.961.68-3.563 1.797-4.813-.18-.453-.781-2.28.172-4.75.128-.03.26-.043.39-.039.633 0 2.063.242 4.422 1.883a16.266 16.266 0 0 1 8.766 0c2.36-1.64 3.79-1.883 4.422-1.883.131-.004.263.009.39.04.954 2.468.352 4.296.172 4.75 1.118 1.257 1.797 2.859 1.797 4.812 0 6.89-4.093 8.406-7.992 8.851.625.555 1.188 1.649 1.188 3.32 0 2.4-.024 4.337-.024 4.923 0 .421.242.898.89.898.106 0 .21-.01.313-.031C32.492 35.094 37.5 28.367 37.5 20.445 37.5 10.54 29.664 2.5 20 2.5Z"/><defs><linearGradient id="a" x1="2.5" x2="21" y1="20" y2="20" gradientUnits="userSpaceOnUse"><stop stop-color="#009DF8"/><stop offset="1" stop-color="#708AF4"/></linearGradient></defs></svg>
